X:1
T:3rd movement Sonata KV 448
T:3rd movement Sonata KV 448
T:W.A. Mozart (1756-1791)
C:W.A. Mozart
%%score { ( 1 4 ) | ( 2 3 ) } { ( 5 8 ) | ( 6 7 ) }
L:1/8
Q:1/4=125
M:2/4
K:D
V:1 treble nm="I" snm="I"
V:4 treble 
V:2 bass 
V:3 bass 
V:5 treble nm="II" snm="II"
V:8 treble 
V:6 bass 
V:7 bass 
V:1
!p!"^Molto Allegro"{e'} (d'c'/d'/) | a z{b} (a^g/a/) | f z{g} (f^e/f/) |{e} (dc/d/){f} (e^d/e/) | %4
 (Tf/e/f/g/ a/f/a/f/) |{e} (dc/d/){f} (e^d/e/) |{g} (f^e/f/){a} (gf/g/) | a/f/b/a/ g/f/e/d/ | %8
 d/c/B/A/!f!{e'} (d'c'/d'/) | a z{b} (a^g/a/) | f z{g} (fe/f/) |{e} (dc/d/){f} (e^d/e/) | %12
 (Tf/e/f/g/ a/f/a/f/) |{e} (dc/d/){f} (e^d/e/) |{g} (fe/f/){a} (gf/g/) | (a/f/b/g/) fTe | %16
[M:1/4] d2 :| z2 |[M:2/4] F/D/A/F/ d/A/f/d/ | (a2 f)!wedge!d | (A2 F)!wedge!D | A,2 z[K:treble] e | %22
 (a/4b/4c'3/2) (a/4b/4c'3/2) | (c'd) z d | (^g/4a/4b3/2) (g/4a/4b3/2) | (bc) z c | %26
 (f/4^g/4a3/2) (f/4g/4a3/2) | B/a/c/a/ d/a/c/a/ | f/a/e/a/ d/a/c/a/ | B/a/c/a/ d/a/c/a/ | %30
 f/a/e/a/ d/a/c/a/ | B/a/c/a/ ^d/a/c/a/ |!<(! B/a/c/a/ ^d/a/c/a/ | B/a/c/a/ ^d/a/c/a/ | %34
 B/a/c/a/ ^d/a/B/a/!<)! |!f! ^g/e/b/g/ e/d/B/d/ | c/d/^d/e/ =d/c/B/A/ | ^G/E/B/G/ E/D/B,/D/ | %38
[K:treble] C/D/^D/E/ =D/C/B,/A,/ |[K:bass] ^G,/E,/B,/G,/ E,/D,/B,,/D,/ | %40
 C,/D,/^D,/E,/ =D,/C,/B,,/A,,/ | E,2 E2 | z4 |[K:treble]!p! (=c(3d/c/B/ c)!wedge!d | e2 z e | %45
 (b(3=c'/b/a/ b)!wedge!c' | d'2 z B | (d=c)!wedge!B!wedge!A | a2 ^d2 | (f4 | e2) z2 | %51
 (=c(3d/c/B/ c)!wedge!d | _e2 z e | (e(3=f/e/d/ e)!wedge!f | g2 z e | (g=f)!wedge!e!wedge!d | %56
 !wedge!=c2 !wedge!B2 | (=c'4 | g2) z e | (g=f)!wedge!e!wedge!d | !wedge!=c2 !wedge!B2 | %61
 =c([=CE][EG][CE]) | z ([=CE][EA][CE]) | z ([DE][E^G][DE]) | z ([=CE][EA][CE]) | %65
 z ([E^G][GB][EG]) | z ([EA][Ae][EA]) | z ([E^G][Bd][EB]) | z ([EA][A=c][^DA]) | %69
 z ([E^G][GB][EG]) | z ([=CE][EA][CE]) | z ([B,D][DG][B,D]) | z ([A,=C][C=F][A,C]) | %73
 z ([^G,B,][B,E][G,B,]) | z ([B,D][D^G][GB]) | z ([EA][D=F][B,D]) | z ([A,=C][B,D][^G,B,]) | %77
 z ([^G,B,][A,=C][CE]) |!f! [=CEA]3!p! a | (Tag) z G | (TG=F) z =f | (T=fe) z2 | (B3 d) | %83
 (d=c)!wedge!B!wedge!A | a2 ^d2 | %85
 (!fermata!Te4{!fermata!^d!fermata!e)(!fermata!f!fermata!e!fermata!=d!fermata!c!fermata!B)} | %86
!pp! (([EAc]4 | [DFA]2)) z [DFA] | (([FBd]4 | [E^GB]2)) z [EGB] | (([^Gce]4 | [FAc]2)) ([A-df]2 | %92
 [Ace]2 [^DA]2 | [Ac]2 [^GB]2) | (([ceac']4 | [dfa]2)) z [dfa] | (([dfbd']4 | [e^gb]2)) z [egb] | %98
 (([e^gc'e']4 | [fac']2)) [fad'f']2 | ([eac']2 [d^gb]2) |!f! a/e/c/e/ a/e/b/e/ | c'2 z2 | %103
 z/ c/A/c/ f/c/^g/c/ | a2 z2 | z/ A/F/A/ d/A/e/A/ | f2 z2 | f/d/f/d/ ^g/d/a/d/ | %108
 b/c'/b/a/ ^g/a/g/f/ | e/a/c/e/ d/f/B/d/ | c/e/A/c/ B/d/^G/B/ | A2 z2 | z/ e/c/e/ a/e/b/e/ | %113
 c'2 z2 | z/ c/A/c/ f/c/^g/c/ | a2 z2 | z/ A/F/A/ d/A/e/A/ | f2 z2 | b/e/b/e/ c'/e/d'/e/ | %119
 e'/c'/e'/c'/ d'/b/d'/b/ | c'/a/c'/a/ b/^g/b/g/ | a2 z e | [ca][ca] [eb][eb] | [ac']2 z e' | %124
 [ac'][ac'][eb][eb] | [ca]2 z e | [ca][ca][eb][eb] | [ac']2 z e' | [ac'][ac'][eb][eb] | %129
 [ca]2{B,} A,^G,/A,/ |{D} C^B,/C/{F} E^D/E/ | A z{D} C^B,/C/ |{F} E^D/E/{B} A^G/A/ | %133
 c z{F} E^D/E/ |{B} A^G/A/{d} c^B/c/ | e2{B} A^G/A/ |{d} c^B/c/{f} e^d/e/ | g2 z3/2 [egc']/ | %138
 [egc']2 z3/2 [gc'e']/ | !fermata![gc'e']2{e'} (d'c'/d'/) | a z{b} (a^g/a/) | f z{g} (f^e/f/) | %142
{e} (dc/d/){f} (e^d/e/) | (Tf/e/f/g/ a/f/a/f/) |{e} (dc/d/){f} (e^d/e/) |{g} (f^e/f/){a} (gf/g/) | %146
 a/f/b/a/ g/f/e/d/ | d/c/B/A/!f!{e'} (d'c'/d'/) | a z{b} (a^g/a/) | f z{g} (fe/f/) | %150
{e} (dc/d/){f} (e^d/e/) | (Tf/e/f/g/ a/f/a/f/) |{e} (dc/d/){f} (e^d/e/) |{g} (fe/f/){a} (gf/g/) | %154
 (a/f/b/g/) fTe | D2 z/ A,/F/D/ | A/F/d/A/ f/d/a/f/ | (=c'2 a)!wedge!f | (=c2 A)!wedge!F | %159
 D2 z!p! (=c | Bd) z (g | fa) z (d | gb) z ([dd'] | [cc'] [dd']2 =c'/a/) | (Bd) z (g | fa) z d | %166
 !wedge!d'(d'/b/) !wedge!=c'(c'/a/) | g/B/A/=c/ B/e/d/f/ | g2 z2 | z4 | z4 | z4 | z4 | z4 | z4 | %175
 z2 z d | Tb>=c'd'd' | d'3 a/f/ | Tg>abb | b3 f/d/ | Te>fgg | (g/d/)!wedge!b/!wedge!a/ g/f/e/d/ | %182
 (d/c/)!wedge!a/!wedge!=c/ (c/B/)!wedge!g/!wedge!B/ | (d>B) A/(d/c/=c/) | (Bd) z (g | fa) z (d | %186
 gb) z (d' | c' d'2 =c'/a/) | (Bd) z (g | fa) z d | !wedge!d'(d'/b/) !wedge!=c'(c'/a/) | %191
 g/B/A/=c/ B/e/d/f/ | g2 z2 | z4 | z4 | z4 | z4 | z4 | z4 | z4 | B,/G/D/G/ B,/G/D/G/ | %201
 =C/A/D/A/ C/A/D/A/ | B,/G/D/G/ B,/G/D/G/ | A,/F/D/F/ A,/F/D/F/ | B,/G/D/G/ B,/G/D/G/ | %205
 =C/A/D/A/ C/A/D/A/ | B,/G/D/G/ A,/F/D/F/ | [B,DG]2 ([Bb-]2 | b/=c'/b/a/ g/f/e/^d/ | %209
 e/B/g/e/ b) z | z4 | z2 ([Aa-]2 | a/b/a/g/ f/e/d/c/ | d/A/f/d/ a) z | z4 | %215
 z/ (a/d'/c'/ b/a/g/f/) | e/d'/f/d'/ g/d'/f/d'/ | b/d'/a/d'/ g/d'/f/d'/ | e/d'/f/d'/ g/d'/f/d'/ | %219
 b/d'/a/d'/ g/d'/f/d'/ | e/d'/f/d'/ ^g/d'/f/d'/ |!<(! e/d'/f/d'/ ^g/d'/f/d'/ | %222
 e/d'/f/d'/ ^g/d'/f/d'/ | e/d'/f/d'/ ^g/d'/e/d'/!<)! |!f! c'/a/e'/c'/ a/g/e/g/ | %225
 f/g/^g/a/ =g/f/e/d/ | c/A/e/c/ A/G/E/G/ |[K:treble] F/G/^G/A/ =G/F/E/D/ | %228
[K:bass] C/A,/E/C/ A,/G,/E,/G,/ | F,/G,/^G,/A,/ =G,/F,/E,/D,/ |[K:treble] A,2 A2 | z4 | %232
!p! (=F(3G/F/E/ F)!wedge!G | A2 z A | (e(3=f/e/d/ e)!wedge!f | g2 z E | (G=F) !wedge!E!wedge!D | %237
 d2 ^G2 | (B4 | A2) z2 | (=F(3G/F/E/ F)!wedge!G | _A2 z A | (A(3_B/A/G/ A)!wedge!B | =c2 z A | %244
 (=c_B)!wedge!A!wedge!G | !wedge!=F2 !wedge!E2 | (=f4 | =c2) z A | (=c_B)!wedge!A!wedge!G | %249
 !wedge!=F2 !wedge!E2 | ([=f=f']4 | [=c=c']2) z a | (=c'_b)!wedge!a!wedge!g | %253
 !wedge!=f2 !wedge!e2 | =f([=FA][A=c][FA]) | z ([A,D][DA][A,D]) | z ([A,G][GA][A,G]) | %257
 z ([A,=F][FA][A,F]) | z ([A,C][CA][A,C]) | z ([DA][Ad][DA]) | z ([GA][Ae][GA]) | %261
 z ([D=F][F^G][DF]) | z ([CE][EA][CE]) | z ([=FA][Ad][FA]) | z ([EG][G=c][EG]) | %265
 z ([D=F][F_B][DF]) | z ([CE][EA][CE]) | z ([CE][EA][CE]) | z ([DA][G_B][EG]) | z ([D=F][EG][CE]) | %270
 z ([CE][D=F][FA]) |!f! [=FAd]3!p! d' | (Td'=c') z =c | (T=c_B) z _b | (T_ba) z2 | (e3 g) | %276
 (g=f)!wedge!e!wedge!d | d'2 ^g2 | %278
 (!fermata!Ta4{!fermata!^g!fermata!a)(!fermata!b!fermata!a!fermata!=g!fermata!f!fermata!e)} | %279
!pp! (([Adf]4 | [GBd]2)) z [GBd] | (([Beg]4 | [Ace]2)) z [Ace] | (([cfa]4 | [Bdf]2)) ([d-gb]2 | %285
 [dfa]2 [^Gd]2 | [df]2 [ce]2) | (([FAdf]4 | [GBd]2)) z [GBd] | (([GBeg]4 | [Ace]2)) z [Ace] | %291
 (([Acfa]4 | [Bdf]2)) [Bdgb]2 | ([Adf]2 [Gce]2) |!f! [FAd] e/a/ f/a/e/a/ | f z z2 | %296
 z/ f/c/f/ d/f/c/f/ | d z z2 | z/ d/^A/d/ B/d/A/d/ | B z z2 | z/ B,/^D/B,/ E/B,/F/B,/ | G z z2 | %302
 z/ A/c/A/ d/A/e/A/ | f z z2 | z/ g/b/g/ c'/g/d'/g/ | e'/a/g/a/ e'/a/g/a/ | e'/a/f/a/ d'/b/f/b/ | %307
 d'/b/e/b/ c'/a/e/a/ | [fad'] z z2 | z/ a/c/f/ d/f/c/f/ | d z z2 | z/ f/^A/d/ B/d/A/d/ | B z z2 | %313
 z/ d/F/B/ G/B/F/B/ | G z z2 | z/ E/^G/E/ A/E/B/E/ | c z z2 | z/ d/f/d/ g/d/a/d/ | b z z2 | %319
 g/e/A/e/ g/e/A/e/ | f/e/A/e/ f/d/B/d/ | e/d/B/d/ e/c/A/c/ | d/A/d/f/ a/f/a/f/ | %323
{e} dc/d/{f} e^d/e/ | (Tf/e/f/g/ a/f/a/f/) |{e} dc/d/{f} e^d/e/ | (d/A/d/f/ a/f/a/f/) | %327
{e} dc/d/{f} e^d/e/ | (Tf/e/f/g/ a/f/a/f/) |{e} dc/d/{f} e^d/e/ | d2{E} DC/D/ | %331
{G} F^E/F/{B} A^G/A/ | d z{G} F^E/F/ |{B} A^G/A/{e} dc/d/ | f z{B} A^G/A/ |{e} dc/d/{g} f^e/f/ | %336
 a z{e} dc/d/ |{g} f^e/f/{b} a^g/a/ | [da=c']2 z2 | [dgb]2 z2 | [d=fbd']2 z2 | z4 |!p! (fg^ga | %343
 bagf) |!p! !trill(!Te4- | (!trill)!e3 d/e/) | d2{e'} (d'c'/d'/) | a z{b} (a^g/a/) | %348
 f z{g} (f^e/f/) |{e} (dc/d/){f} (e^d/e/) | (Tf/e/f/g/ a/f/a/f/) |{e} (dc/d/){f} (e^d/e/) | %352
{g} (f^e/f/){a} (gf/g/) | a/f/b/a/ g/f/e/d/ | d/c/B/A/!f!{e'} (d'c'/d'/) | a z{b} (a^g/a/) | %356
 f z{g} (fe/f/) |{e} (dc/d/){f} (e^d/e/) | (Tf/e/f/g/ a/f/a/f/) |{e} (dc/d/){f} (e^d/e/) | %360
{g} (fe/f/){a} (gf/g/) | (a/f/b/g/) fTe | d/d'/d/d'/ e/d'/f/d'/!dacoda!!dacoda! | %363
 g/d'/^g/d'/ a/d'/^a/d'/ | b/d'/=c'/d'/ b/d'/a/d'/ | ^g/d'/b/g/ e/d/B/^G/ | [CEG]4 | %367
 f/d'/f/d'/ f/d'/f/d'/ | e/d'/e/d'/ e/c'/e/c'/ | d/d'/d/d'/ e/d'/f/d'/ | g/d'/^g/d'/ a/d'/^a/d'/ | %371
 b/d'/=c'/d'/ b/d'/a/d'/ | ^g/d'/b/g/ e/d/B/^G/ | [CEG]4 | f/d'/f/d'/ f/d'/f/d'/ | %375
 e/d'/e/d'/ e/c'/e/c'/ | [fad']2 z A | [Fd][Fd][Ae][Ae] | [df]2 z a | [df][df][Ae][Ae] | %380
 d/A/d/f/ a/f/a/f/ |{e} (dc/d/){f} (e^d/e/) | (Tf/e/f/g/ a/f/a/f/) |{e} (dc/d/){f} (e^d/e/) | %384
 d z{E} (DC/D/) |{G} (F^E/F/){B} (A^G/A/) | d z{e} (dc/d/) |{g} (f^e/f/){b} (a^g/a/) | d'ad'a | %389
 d'ad'a | d'2 D>D |[M:1/4] D2 |] %392
V:2
 z2 |[K:treble] ([DF][FA]) z2 | ([DF][FA]) z2 | AA[GA][GA] | [FA]2 z2 | AA[GA][GA] | %6
 [FA][FA][CA][CA] | [DA]2 z2 | z4 |[K:bass] [A,DF][A,DF][A,DF][A,DF] | [A,DF][A,DF][A,DF][A,DF] | %11
 [A,DF][A,DF][A,CG][A,CG] | [A,DF][A,DF][A,DF][A,DF] | [A,DF][A,DF][A,CG][A,CG] | %14
 [A,DF][A,DF][A,CE][A,CE] | (DG/E/) DC |[M:1/4] D2 :| z/ F,/D/A,/ |[M:2/4] F,/D,/A,/F,/ D/A,/F/D/ | %19
 (A2 F)!wedge!D | (A,2 F,)!wedge!D, | A,,2 z[K:treble] E | (A/4B/4c3/2) (A/4B/4c3/2) | (cD) z D | %24
 (^G/4A/4B3/2) (G/4A/4B3/2) | (BC) z C | (F/4^G/4A3/2) (F/4G/4A3/2) | [A,A]4- | %28
 [A,A][A,A][A,A][A,A] | [A,A]4- | [A,A][A,A][A,A][A,A] | [A,A]4 | [A,A]4 | [A,A][A,A][A,A][A,A] | %34
 [A,A][A,A][A,A][A,A] | ^G/E/B/G/ E/D/B,/D/ | C/D/^D/E/ =D/C/B,/A,/ | %37
[K:bass] ^G,/E,/B,/G,/ E,/D,/B,,/D,/ | C,/D,/^D,/E,/ =D,/C,/B,,/A,,/ | %39
 ^G,,/E,,/B,,/G,,/ E,,/D,,/B,,,/D,,/ | C,,/D,,/^D,,/E,,/ =D,,/C,,/B,,,/A,,,/ | E,,2 E,2 | z4 | %43
 A,2 z2 | A,2 z2 | ^G,2 z2 | ^G,2 z2 | A,2 z2 | =F,2 z2 | E,2 z2 | E,2 z2 | A,2 z2 | _A,2 z2 | %53
 G,2 z2 | G,2 z2 | G,4- | G,4 | z2 [=C,,=C,]2 | [E,,E,]2 [=C,,=C,]2 | [G,,G,]4- | [G,,G,]4 | %61
 =C,2 z2 | =C,2 z2 | B,,2 z2 | A,,2 z2 | E,2 z2 | =C4 | (B,2 ^G,2) | (A,2 =F,2) | E,4 | %70
 [=C,,=C,]4 | [B,,,B,,]4 | [A,,,A,,]4 | [^G,,,^G,,]4 | ^G,2 E,2 | A,2 D,2 | E,2 E,2 | A,,4 | %78
 =C,2 =C2 | B,2 B,,2 | A,,2 A,2 | ^G,2 ^G,,2 | z2 [E,,E,]2 | [A,,A,]4 | [=F,,=F,]4 | %85
 [E,,E,]2 !fermata!z2 | (A,,4 | D,2) z D, | (B,,4 | E,2) z E, | (C,4 | F,2) (D,2 | A,2 F,2) | E,4 | %94
 (A,4 | D2) z D | (B,4 | E2) z E | (C4 | F2) (D2 | E2 E,2) | A,2[K:treble] c^G | A2 z2 | z2 A^E | %104
 F2 z2 | z2 FC | D2 z2 |[K:bass] [D,D][C,C][B,,B,][A,,A,] | [^G,,^G,]2 z [D,D] | [C,C] z [D,D] z | %110
 [E,E] z [E,,E,] z | [A,,A,]2 z2 | z2[K:treble] c^G | A2 z2 | z2 A^E | F2 z2 | z2 FC | D2 z2 | %118
[K:bass] [^G,,^G,][F,,F,][E,,E,][D,,D,] | [C,,C,] z [D,,D,] z | [E,,E,] z [E,,E,] z | %121
 [A,,,A,,]2 z[K:treble] E | [CA][CA] [EB][EB] | [Ac]2 z e | [Ac][Ac][EB][EB] | [CA]2 z E | %126
 [CA][CA][EB][EB] | [Ac]2 z e | [Ac][Ac][EB][EB] | [CA]2 z2 | z4 | [A,,C,E,A,]2 z2 |[K:bass] z4 | %133
 [A,,C,E,A,]2 z2 | z4 | [A,,C,E,A,]2 z2 | z4 | z2 z3/2 [A,,C,E,A,]/ | %138
 [A,,C,E,A,]2 z3/2[K:treble] [A,CEA]/ | [A,CEA]2 z2 |[K:treble] ([DF][FA]) z2 | ([DF][FA]) z2 | %142
 AA[GA][GA] | [FA]2 z2 | AA[GA][GA] | [FA][FA][CA][CA] | [DA]2 z2 | z4 | %148
[K:bass] [A,DF][A,DF][A,DF][A,DF] | [A,DF][A,DF][A,DF][A,DF] | [A,DF][A,DF][A,CG][A,CG] | %151
 [A,DF][A,DF][A,DF][A,DF] | [A,DF][A,DF][A,CG][A,CG] | [A,DF][A,DF][A,CE][A,CE] | (DG/E/) DC | %155
 D,2 z/ A,,/F,/D,/ | A,/F,/D/A,/ F/D/A/F/ | (=c2 A)!wedge!F | (=C2 A,)!wedge!F, | D,2 z2 | %160
 G,/D/B,/D/ G,/D/B,/D/ | A,/D/=C/D/ A,/D/C/D/ | G,/D/B,/D/ G,/D/B,/D/ | F,/D/A,/D/ D,/D/F,/D/ | %164
 G,/D/B,/D/ G,/D/B,/D/ | A,/D/=C/D/ A,/D/C/D/ | G,/D/B,/D/ D,/=C/A,/C/ | B,/G/F/E/ D/=C/B,/A,/ | %168
 G,2 z2 | z4 | z4 | z4 | z4 | z4 | z4 | z4 | G,/B,/D/G/ B/G/D/B,/ | F,/A,/D/F/ A/F/D/A,/ | %178
 E,/G,/B,/E/ G/E/B,/G,/ | D,/F,/B,/D/ F/D/B,/F,/ | =C,/E,/G,/=C/ E/C/G,/E,/ | B,,2 z ^G, | %182
 A,F,G,C, | ([D,-G,]2 [D,F,]) z | (B,D) x2 | x4 | x4 | x4 | (B,D) x2 | x4 | x4 | x4 | G,2 z2 | z4 | %194
 z4 | z4 | z4 | z4 | z4 | z4 | [G,,G,]2 z2 | [D,,D,]2 z2 | [G,,G,]2 z2 | [D,,D,]4 | [G,,G,]2 z2 | %205
 [D,,D,]2 z2 | [G,,G,]2 [D,,D,]2 |!8vb(! [G,,,G,,]2!8vb)! z2 |[K:treble] (([B,^DFA]4 | [EG]2)) z2 | %210
 z4 | z2 z2 |[K:treble] (([A,CEG]4 | [DF]2)) z2 | z4 | z4 | [Dd]4- | [Dd][Dd] [Dd][Dd] | [Dd]4- | %219
 [Dd][Dd] [Dd][Dd] | [Dd]4 | [Dd]4 | [Dd][Dd][Dd][Dd] | [Dd][Dd][Dd][Dd] | c/A/e/c/ A/G/E/G/ | %225
 F/G/^G/A/ =G/F/E/D/ |[K:bass] C/A,/E/C/ A,/G,/E,/G,/ | F,/G,/^G,/A,/ =G,/F,/E,/D,/ | %228
 C,/A,,/E,/C,/ A,,/G,,/E,,/G,,/ | F,,/G,,/^G,,/A,,/ =G,,/F,,/E,,/D,,/ | A,,2 A,2 | z4 | D,2 z2 | %233
 D,2 z2 | C,2 z2 | C,2 z2 | D,2 z2 | _B,,2 z2 | A,,2 z2 | A,,2 z2 | D,2 z2 | C,2 z2 | =C,2 z2 | %243
 =C,2 z2 | =C,4- | C,4 | z2 =F,,2 | A,,2 =F,,2 | =C,4- | C,4 | z2 [=F,,=F,]2 | %251
 [A,,A,]2 [=F,,=F,]2 | [=C,=C]4- | [C,C]4 | =F,2 z2 | =F,2 z2 | E,2 z2 | D,2 z2 | A,,2 z2 | =F,4 | %260
 (E,2 C,2) | (D,2 _B,2) | A,4 | [=F,,=F,]4 | [E,,E,]4 | [D,,D,]4 | [C,,C,]4 | C,2 A,,2 | D,2 G,2 | %269
 A,2 A,,2 | D,4 | =F,2 =F2 | E2 E,2 | D,2 D2 | C2 C,2 | z2 [A,,A,]2 | [D,D]4 | [_B,,_B,]4 | %278
 [A,,A,]2 !fermata!z2 | (D,4 | G,2) z G, | (E,4 | A,2) z A, | (F,4 | B,2) (G,2 | D2 B,2) | A,4 | %287
 z4 | (G,,/A,,/B,,/C,/ D,/E,/F,/G,/ | E,2) z2 | (A,,/B,,/C,/D,/ E,/F,/G,/A,/ | F,2) z2 | B,2 (G,2 | %293
 A,2 A,,2) | D,[K:treble] cdc | d z z2 | z ^ABA | B z z2 | z FGF | G z z2 | %300
[K:bass] z [A,,A,][G,,G,][F,,F,] | [E,,E,] z z2 | z [G,,G,][F,,F,][E,,E,] | [D,,D,] z z2 | %304
 z [F,,F,][E,,E,][D,,D,] | [C,,C,]2 [C,C]2 | [D,D]2 [B,,B,]2 | [G,,G,]2 [A,,A,]2 | [D,,D,] z z2 | %309
 z[K:treble] ^ABA | B z z2 | z FGF | G z z2 | z ^DED | E z z2 |[K:bass] z [D,,D,][C,,C,][B,,,B,,] | %316
 [A,,,A,,] z z2 | z [=C,=C][B,,B,][A,,A,] | [G,,G,] z z2 |!8vb(! z2 [C,,C,]2 | %320
 [D,,D,]2 [B,,,B,,]2 | [G,,,G,,]2 [A,,,A,,]2 | [D,,D,]2!8vb)! z2 | z2 [A,,C,E,A,]2 | %324
 [D,F,A,D]2 z2 | z2 [A,,,C,,E,,A,,]2 | [D,,F,,A,,D,]2 z2 | z2 [A,,C,E,A,]2 | [D,F,A,D]2 z2 | %329
 z2 [A,,,C,,E,,A,,]2 | [D,,F,,A,,D,]2 z2 | z4 | [D,F,A,D]2 z2 | z4 | [D,F,A,D]2 z2 | z4 | %336
 [D,F,A,D]2 z2 | z4 | [F,,F,]2 z2 | [G,,G,]2 z2 | [^G,,^G,]2 z2 | z4 | z4 | z4 |[K:treble] (A,GFG | %345
 AGFG) | F2 z2 |[K:treble] ([DF][FA]) z2 | ([DF][FA]) z2 | AA[GA][GA] | [FA]2 z2 | AA[GA][GA] | %352
 [FA][FA][CA][CA] | [DA]2 z2 | z4 |[K:bass] [A,DF][A,DF][A,DF][A,DF] | [A,DF][A,DF][A,DF][A,DF] | %357
 [A,DF][A,DF][A,CG][A,CG] | [A,DF][A,DF][A,DF][A,DF] | [A,DF][A,DF][A,CG][A,CG] | %360
 [A,DF][A,DF][A,CE][A,CE] | (DG/E/) DC | D([D,D][C,C][=C,=C] | [B,,B,][_B,,_B,][A,,A,][F,,F,] | %364
 [G,,G,][F,,F,][G,,G,][=F,,=F,]) | [E,,E,]4 | [A,,,A,,]4 | D,DB,,B, | G,,G,A,,A, | %369
 D([D,D][C,C][=C,=C] | [B,,B,][_B,,_B,][A,,A,][F,,F,] | [G,,G,][F,,F,][G,,G,][=F,,=F,]) | %372
 [E,,E,]4 | [A,,,A,,]4 | D,DB,,B, | G,,G,A,,A, | D,2 z A, | [F,D][F,D][A,E][A,E] | [DF]2 z A | %379
 [DF][DF][A,E][A,E] | [F,D]2 z2 | z2 [A,,C,E,A,]2 | [D,F,A,D]2 z2 | z2 [A,,,C,,E,,A,,]2 | %384
 [D,,F,,A,,D,]2 z2 | z4 | z2{E,} (D,C,/D,/) |{G,} (F,^E,/F,/){B,} (A,^G,/A,/) | DA,DA, | DA,DA, | %390
 D2 [D,,D,]2 |[M:1/4] [D,,D,]2 |] %392
V:3
 x2 |[K:treble] x4 | x4 | x4 | x4 | x4 | x4 | x4 | x4 |[K:bass] x4 | x4 | x4 | x4 | x4 | x4 | x4 | %16
[M:1/4] x2 :| z/ F,,/D,/A,,/ |[M:2/4] x4 | x4 | x4 | x3[K:treble] x | x4 | x4 | x4 | x4 | x4 | x4 | %28
 x4 | x4 | x4 | x4 | x4 | x4 | x4 | x4 | x4 |[K:bass] x4 | x4 | x4 | x4 | x4 | x4 | x4 | x4 | x4 | %46
 x4 | x4 | x4 | x4 | x4 | x4 | x4 | x4 | x4 | x4 | x4 | x4 | x4 | x4 | x4 | x4 | x4 | x4 | x4 | %65
 x4 | x4 | x4 | x4 | x4 | x4 | x4 | x4 | x4 | x4 | x4 | x4 | x4 | x4 | x4 | x4 | x4 | x4 | x4 | %84
 x4 | x4 | x4 | x4 | x4 | x4 | x4 | x4 | x4 | x4 | x4 | x4 | x4 | x4 | x4 | x4 | x4 | %101
 x2[K:treble] x2 | x4 | x4 | x4 | x4 | x4 |[K:bass] x4 | x4 | x4 | x4 | x4 | x2[K:treble] x2 | x4 | %114
 x4 | x4 | x4 | x4 |[K:bass] x4 | x4 | x4 | x3[K:treble] x | x4 | x4 | x4 | x4 | x4 | x4 | x4 | %129
 x4 | x4 | x4 |[K:bass] x4 | x4 | x4 | x4 | x4 | x4 | x7/2[K:treble] x/ | x4 |[K:treble] x4 | x4 | %142
 x4 | x4 | x4 | x4 | x4 | x4 |[K:bass] x4 | x4 | x4 | x4 | x4 | x4 | x4 | x4 | x4 | x4 | x4 | x4 | %160
 x4 | x4 | x4 | x4 | x4 | x4 | x4 | x4 | x4 | x4 | x4 | x4 | x4 | x4 | x4 | x4 | x4 | x4 | x4 | %179
 x4 | x4 | x4 | x4 | x4 | x4 | x4 | x4 | x4 | x4 | x4 | x4 | x4 | x4 | x4 | x4 | x4 | x4 | x4 | %198
 x4 | x4 | x4 | x4 | x4 | x4 | x4 | x4 | x4 |!8vb(! x2!8vb)! x2 |[K:treble] x4 | x4 | x4 | x4 | %212
[K:treble] x4 | x4 | x4 | x4 | x4 | x4 | x4 | x4 | x4 | x4 | x4 | x4 | x4 | x4 |[K:bass] x4 | x4 | %228
 x4 | x4 | x4 | x4 | x4 | x4 | x4 | x4 | x4 | x4 | x4 | x4 | x4 | x4 | x4 | x4 | x4 | x4 | x4 | %247
 x4 | x4 | x4 | x4 | x4 | x4 | x4 | x4 | x4 | x4 | x4 | x4 | x4 | x4 | x4 | x4 | x4 | x4 | x4 | %266
 x4 | x4 | x4 | x4 | x4 | x4 | x4 | x4 | x4 | x4 | x4 | x4 | x4 | x4 | x4 | x4 | x4 | x4 | x4 | %285
 x4 | x4 | x4 | x4 | x4 | x4 | x4 | x4 | x4 | x[K:treble] x3 | x4 | x4 | x4 | x4 | x4 | %300
[K:bass] x4 | x4 | x4 | x4 | x4 | x4 | x4 | x4 | x4 | x[K:treble] x3 | x4 | x4 | x4 | x4 | x4 | %315
[K:bass] x4 | x4 | x4 | x4 |!8vb(! x4 | x4 | x4 | x2!8vb)! x2 | x4 | x4 | x4 | x4 | x4 | x4 | x4 | %330
 x4 | x4 | x4 | x4 | x4 | x4 | x4 | x4 | x4 | x4 | x4 | x4 | x4 | x4 |[K:treble] x4 | x4 | x4 | %347
[K:treble] x4 | x4 | x4 | x4 | x4 | x4 | x4 | x4 |[K:bass] x4 | x4 | x4 | x4 | x4 | x4 | x4 | x4 | %363
 x4 | x4 | x4 | x4 | x4 | x4 | x4 | x4 | x4 | x4 | x4 | x4 | x4 | x4 | x4 | x4 | x4 | x4 | x4 | %382
 x4 | x4 | x4 | x4 | x4 | x4 | x4 | x4 | x4 |[M:1/4] x2 |] %392
V:4
 x2 | x4 | x4 | x4 | x4 | x4 | x4 | x4 | x4 | x4 | x4 | x4 | x4 | x4 | x4 | x4 |[M:1/4] x2 :| x2 | %18
[M:2/4] x4 | x4 | x4 | x3[K:treble] x | x4 | x4 | x4 | x4 | x4 | x4 | x4 | x4 | x4 | x4 | x4 | x4 | %34
 x4 | x4 | x4 | x4 |[K:treble] x4 |[K:bass] x4 | x4 | x4 | x4 |[K:treble] x4 | x4 | x4 | x4 | x4 | %48
 x4 | x4 | x4 | x4 | x4 | x4 | x4 | x4 | x4 | x4 | x4 | x4 | x4 | x4 | x4 | x4 | x4 | x4 | x4 | %67
 x4 | x4 | x4 | x4 | x4 | x4 | x4 | x4 | x4 | x4 | x4 | x4 | x4 | x4 | x4 | x4 | x4 | x4 | x4 | %86
 x4 | x4 | x4 | x4 | x4 | x4 | x4 | E4 | x4 | x4 | x4 | x4 | x4 | x4 | e4 | x4 | x4 | x4 | x4 | %105
 x4 | x4 | x4 | x4 | x4 | x4 | x4 | x4 | x4 | x4 | x4 | x4 | x4 | x4 | x4 | x4 | x4 | x4 | x4 | %124
 x4 | x4 | x4 | x4 | x4 | x4 | x4 | x4 | x4 | x4 | x4 | x4 | x4 | x4 | x4 | x4 | x4 | x4 | x4 | %143
 x4 | x4 | x4 | x4 | x4 | x4 | x4 | x4 | x4 | x4 | x4 | x4 | x4 | x4 | x4 | x4 | x4 | x4 | x4 | %162
 x4 | x4 | x4 | x4 | x4 | x4 | x4 | x4 | x4 | x4 | x4 | x4 | x4 | x4 | x4 | x4 | x4 | x4 | x4 | %181
 x4 | x4 | x4 | x2 x (G | FA) x (D | GB) x (d | c d2 =c/A/) | x2 x (G | FA) x D | %190
 !wedge!d(d/B/) !wedge!=c(c/A/) | GF/E/ D/[I:staff +1]=C/B,/A,/ | x4 | x4 | x4 | x4 | x4 | x4 | %198
 x4 | x4 | x4 | x4 | x4 | x4 | x4 | x4 | x4 | x4 | x4 | x4 | x4 | x4 | x4 | x4 | x4 | x4 | x4 | %217
 x4 | x4 | x4 | x4 | x4 | x4 | x4 | x4 | x4 | x4 |[I:staff -1][K:treble] x4 |[K:bass] x4 | x4 | %230
[K:treble] x4 | x4 | x4 | x4 | x4 | x4 | x4 | x4 | x4 | x4 | x4 | x4 | x4 | x4 | x4 | x4 | x4 | %247
 x4 | x4 | x4 | x4 | x4 | x4 | x4 | x4 | x4 | x4 | x4 | x4 | x4 | x4 | x4 | x4 | x4 | x4 | x4 | %266
 x4 | x4 | x4 | x4 | x4 | x4 | x4 | x4 | x4 | x4 | x4 | x4 | x4 | x4 | x4 | x4 | x4 | x4 | x4 | %285
 x4 | A4 | x4 | x4 | x4 | x4 | x4 | x4 | A4 | x4 | x4 | x4 | x4 | x4 | x4 | x4 | x4 | x4 | x4 | %304
 x4 | x4 | x4 | x4 | x4 | x4 | x4 | x4 | x4 | x4 | x4 | x4 | x4 | x4 | x4 | x4 | x4 | x4 | x4 | %323
 x4 | x4 | x4 | x4 | x4 | x4 | x4 | x4 | x4 | x4 | x4 | x4 | x4 | x4 | x4 | x4 | x4 | x4 | x4 | %342
 x4 | x4 | x4 | x4 | x4 | x4 | x4 | x4 | x4 | x4 | x4 | x4 | x4 | x4 | x4 | x4 | x4 | x4 | x4 | %361
 x4 | x4 | x4 | x4 | x4 | x4 | x4 | x4 | x4 | x4 | x4 | x4 | x4 | x4 | x4 | x4 | x4 | x4 | x4 | %380
 x4 | x4 | x4 | x4 | x4 | x4 | x4 | x4 | x4 | x4 | x4 |[M:1/4] x2 |] %392
V:5
 z2 |[K:bass]!p! [F,A,]2 z2 | [F,A,]2 z2 | [F,D][F,D][A,E][A,E] | [DF]2 z2 | [F,D][F,D][A,E][A,E] | %6
[K:treble] [A,F][A,F][A,G][A,G] | [A,A]FDB | E2!f!{e} (dc/d/) | A z{B} (A^G/A/) | F z{G} (FE/F/) | %11
{E} (DC/D/){F} (E^D/E/) | (TF/E/F/G/ A/F/A/F/) |{E} (DC/D/){F} (E^D/E/) |{G} (FE/F/){A} GF/G/ | %15
 (A/F/B/G/) FTE |[M:1/4] D2 :| x2 |[M:2/4] F/D/A/F/ d/A/f/d/ | (a2 f)!wedge!d | (A2 F)!wedge!D | %21
 x4 | x4 | x4 | x4 | x4 | x4 | B,/A/C/A/ D/A/C/A/ | F/A/E/A/ D/A/C/A/ | B,/A/C/A/ D/A/C/A/ | %30
 F/A/E/A/ D/A/C/A/ | B,/A/C/A/ ^D/A/C/A/ |!<(! B,/A/C/A/ ^D/A/C/A/ | B,/A/C/A/ ^D/A/C/A/ | %34
 B,/A/C/A/ ^D/A/B,/A/!<)! | ^G2 z2 | z4 | z4 | z4 |!f! ^g/e/b/g/ e/d/B/d/ | c/d/^d/e/ =d/c/B/A/ | %41
 E2 e2 | z4 |!p! z ([A,=C][CE][A,C]) | z ([A,=C][CE][A,C]) | z ([B,D][DE][B,D]) | %46
 z ([B,D][DE][B,D]) | z ([A,=C][CE][A,C]) | z ([A,^D][DA][A,D]) | z ([A,=C][C^D][A,C]) | %50
 !wedge![^G,B,]([B,D][A,=C][G,B,]) | z ([A,=C][CE][A,C]) | z ([=C_E][EF][CE]) | z ([=CE][EG][CE]) | %54
 z ([=CE][EG][CE]) | z ([B,D][DG][B,D] | [EG][=CE][=FG][DF]) | z ([=CE][EG][CE] | %58
 [EG][=CE][EG][CE]) | z ([B,D][DG][B,D] | [EG][=CE][=FG][DF]) | [=CE]2 z2 | (e3 A) | (A^G) z G | %64
 (BA) z A | (=cB) z2 | (e3 a) | (a^g) z b | (d'=c') z ^d | (fe) z2 |!f! [=CEA]3!p! a | (Tag) z G | %72
 (TG=F) z =f | (T=fe) z2 | (B3 d) | (d=cdB) | A2 B2 | (d2 =c2) | z ([=CE][EA][CE]) | %79
 z ([B,D][DG][B,D]) | z ([A,=C][C=F][A,C]) | z ([^G,B,][B,E][G,B,]) | z ([B,D][D^G][GB]) | %83
 z ([=CE][E=c][CE]) | z ([=C^D][D=c][DA]) | [B,E^G]2 z2 | (([CEA]4 | [A,DF]2)) z [A,DF] | %88
 (([DFB]4 | [B,E^G]2)) z [B,EG] | (([E^Gc]4 | [CFA]2)) ([DFA-]2 | [CEA]2) [A,^DA-]2 | %93
 (([CA]2 [B,^G]2)) | [CEAc]4 | [DFA]2 z [DFA] | [DFBd]4 | [E^GB]2 z [EGB] | [E^Gce]4 | %99
 [FAc]2 [FAdf]2 | [EAc]2 [D^GB]2 | [CEA]2 z2 |!f! z/ e/c/e/ a/e/b/e/ | c'2 z2 | %104
 z/ c/A/c/ f/c/^g/c/ | a2 z2 | z/ A/F/A/ d/A/e/A/ | f2 z2 | b/e/b/e/ c'/e/d'/e/ | %109
 e'/c'/e'/c'/ d'/b/d'/b/ | c'/a/c'/a/ b/^g/b/g/ | a/e/c/e/ a/e/b/e/ | c'2 z2 | %113
 z/ c/A/c/ f/c/^g/c/ | a2 z2 | z/ A/F/A/ d/A/e/A/ | f2 z2 | f/d/f/d/ ^g/d/a/d/ | %118
 b/c'/b/a/ ^g/a/g/f/ | e/a/c/e/ d/f/B/d/ | c/e/A/c/ B/d/^G/B/ | A/E/A/c/ e/c/e/c/ | %122
{B} A^G/A/{c} B^A/B/ | (Tc/B/c/d/ e/c/e/c/) |{B} A^G/A/{c} B^A/B/ | A/E/A/c/ e/c/e/c/ | %126
{B} A^G/A/{c} B^A/B/ | (Tc/B/c/d/ e/c/e/c/) |{B} A^G/A/{c} B^A/B/ | A2 z2 | z4 | z2{B,} A,^G,/A,/ | %132
{D} C^B,/C/ EE | A z{D} C^B,/C/ | EE{B} A^G/A/ | c z EE |{B} A^G/A/{d} c^B/c/ | e2 z3/2 [ceg]/ | %138
 [ceg]2 z3/2 [egc']/ | [egc']2 z2 |[K:bass] [F,A,]2 z2 | [F,A,]2 z2 | [F,D][F,D][A,E][A,E] | %143
 [DF]2 z2 | [F,D][F,D][A,E][A,E] |[K:treble] [A,F][A,F][A,G][A,G] | [A,A]FDB | E2!f!{e} (dc/d/) | %148
 A z{B} (A^G/A/) | F z{G} (FE/F/) |{E} (DC/D/){F} (E^D/E/) | (TF/E/F/G/ A/F/A/F/) | %152
{E} (DC/D/){F} (E^D/E/) |{G} (FE/F/){A} GF/G/ | (A/F/B/G/) FTE | D2 z/ A,/F/D/ | %156
 A/F/d/A/ f/d/a/f/ | (=c'2 a)!wedge!f | (=c2 A)!wedge!F | D=CB,A, | G,2 z2 | z4 | z4 | z4 | z4 | %165
 z4 | z4 | z2 z!p! d | Bd z (g | fa) z (d | gb) z ([dd'] | [cc'] [dd']2 =c'/a/) | (Bd) z (g | %173
 fa) z d | !wedge!d'(d'/b/) !wedge!=c'(c'/a/) | g/B/A/=c/ B/e/d/f/ | g2 z2 | z4 | z4 | z4 | z4 | %181
 z4 | z4 | z4 | B,/G/D/G/ B,/G/D/G/ | =C/A/D/A/ C/A/D/A/ | B,/G/D/G/ B,/G/D/G/ | %187
 A,/F/D/F/ A,/F/D/F/ | B,/G/D/G/ B,/G/D/G/ | =C/A/D/A/ C/A/D/A/ | B,/G/D/G/ A,/F/D/F/ | %191
 [B,DG]2 z d | Tb>=c' d'd' | d'3 a/f/ | Tg>abb | b3 f/d/ | Te>fgg | (g/d/).b/.a/ .g/.f/.e/.d/ | %198
 (d/c/)!wedge!a/!wedge!=c/ (c/B/)!wedge!g/!wedge!B/ | (d>B) A/(d/c/=c/) | (Bd) z (g | fa) z d | %202
 gb z (d' | c' d'2 =c'/a/) | (Bd) z (g | fa) z d |!8va(! !wedge!d'(d'/b/) !wedge!=c'(c'/a/) | %207
 g2!8va)! z2 | z4 | z2 ([Bb-]2 | b/=c'/b/a/ g/f/e/^d/ | e/f/g/^g/ a) z | z4 | z2 ([Aa-]2 | %214
 a/b/a/g/ f/e/d/c/ | d) z z2 | E/d/F/d/ G/d/F/d/ | B/d/A/d/ G/d/F/d/ | E/d/F/d/ G/d/F/d/ | %219
 B/d/A/d/ G/d/F/d/ | E/d/F/d/ ^G/d/F/d/ |!<(! E/d/F/d/ ^G/d/F/d/ | E/d/F/d/ ^G/d/F/d/ | %223
 E/d/F/d/ ^G/d/E/d/!<)! |!f! c2 z2 | z4 | z4 | z4 |!f! c'/a/e'/c'/ a/g/e/g/ | f/g/^g/a/ =g/f/e/d/ | %230
 A2 a2 | z4 |!p! z ([A,D][D=F][A,D]) | z ([A,D][D=F][A,D]) | z ([A,E][EG][A,E]) | %235
 z ([A,E][EG][A,E]) |!p! z ([A,D][D=F][A,D]) | z ([^G,D][D=F][G,D]) | z ([D=F][F^G][DF]) | %239
 !wedge![CE] ([EG][D=F][CE]) |!p! z ([A,D][D=F][A,D]) | z ([_A,=B,][B,=F][A,=B,]) | %242
 z ([A,=C][C=F][A,C]) | z ([A,=C][C=F][A,C]) | z ([G,=C][CE][G,C] | [=C=F][A,C][CG][_B,C]) | %246
 z ([A,=C][C=F][A,C] | [=C=F][A,C][CF][A,C]) | z ([G,=C][CE][G,C] | [=C=F][A,C][CG][_B,C]) | %250
 z ([A,=C][C=F][A,C] | [=C=F][A,C][CF][A,C]) | z ([G,=C][CE][G,C] | [=C=F][A,C][CG][_B,C]) | %254
 [A,=C]2 z2 |{A} (a3 d) | (dc) z c | (ed) z d | (=fe) z2 | (a3 d') | (d'c') z e' | %261
 (g=f)!wedge!d'!wedge!^g | (ba) z2 |!f! [=FAd]3 d' | (Td'=c') z =c | (T=c_B) z _b | (T_ba) z2 | %267
 (e3 g) | (g=f ge) | d2 e2 | (g2 =f2) | z ([=FA][Ad][FA]) | z ([EG][G=c][EG]) | %273
 z ([D=F][F_B][DF]) | z ([CE][EA][CE]) | z ([CE][EA][CE]) | z ([D=F][FA][DF]) | %277
 z ([D=F][F^G][DF]) | [CEA]2 !fermata!z2 |!pp! (([FAd]4 | [DGB]2)) z [DGB] | (([GBe]4 | %282
 [EAc]2)) z [EAc] | (([Acf]4 | [FBd]2)) ([Bd-g]2 | [Adf]2) [D^Gd-]2 | (([Fd]2 [Ec]2)) | [F,A,DF]4 | %288
 [G,B,D]2 z [G,B,D] | [G,B,EG]4 | [A,CE]2 z [A,CE] | (([A,CFA]4 | [B,DF]2)) [B,DGB]2 | %293
 ([A,DF]2 [G,CE]2) | [F,A,D]2 z2 | z/!f! a/c/f/ d/f/c/f/ | d z z2 | z/ f/^A/d/ B/d/A/d/ | B z z2 | %299
 z/ d/F/B/ G/B/F/B/ | G z z2 | z/ E/^G/E/ A/E/B/E/ | c z z2 | z/ d/f/d/ g/d/a/d/ | b z z2 | %305
 g/e/A/e/ g/e/A/e/ | f/e/A/e/ f/d/B/d/ | e/d/B/d/ e/c/A/c/ | d/a/e/a/ f/a/e/a/ | f z z2 | %310
 z/ f/c/f/ d/f/c/f/ | d z z2 | z/ d/^A/d/ B/d/A/d/ | B z z2 | z/ B,/^D/B,/ E/B,/F/B,/ | G z z2 | %316
 z/ A/c/A/ d/A/e/A/ | f z z2 | z/!8va(! g/b/g/ c'/g/d'/g/ | e'/a/g/a/ e'/a/g/a/ | %320
 e'/a/f/a/ d'/b/f/b/ | d'/b/e/b/ c'/a/e/a/ | [fad']2!8va)! z A | [Fd][Fd][Ae][Ae] | [df]2 z a | %325
 [df][df][Ae][Ae] | [Fd]2 z A | [Fd][Fd][Ae][Ae] | [df]2 z a | [df][df][Ae][Ae] | [Fd]2 z2 | z4 | %332
 z2{E} DC/D/ |{G} F^E/F/ AA | d z{G} F^E/F/ | AA{e} dc/d/ | f z AA |{e} dc/d/{g} f^e/f/ | %338
 [=cda]2 z2 | [Bdg]2 z2 | [Bd=fb]2 z2 | z4 |!p! (de^ef | gfed) | !trill(!Tc4- | (!trill)!c3 B/c/) | %346
 d2 z2 |[K:bass]!p! [F,A,]2 z2 | [F,A,]2 z2 | [F,D][F,D][A,E][A,E] | [DF]2 z2 | %351
 [F,D][F,D][A,E][A,E] |[K:treble] [A,F][A,F][A,G][A,G] | [A,A]FDB | E2!f!{e} (dc/d/) | %355
 A z{B} (A^G/A/) | F z{G} (FE/F/) |{E} (DC/D/){F} (E^D/E/) | (TF/E/F/G/ A/F/A/F/) | %359
{E} (DC/D/){F} (E^D/E/) |{G} (FE/F/){A} GF/G/ | (A/F/B/G/) FTE | D/d/D/d/ E/d/F/d/ | %363
 G/d/^G/d/ A/d/^A/d/ | B/d/=c/d/ B/d/A/d/ | [B,D^G]4 | g/e'/c'/a/ g/e/c/G/ | F2 d/f/d/f/ | %368
 d/e/d/e/ c/e/c/e/ | D/d/D/d/ E/d/F/d/ | G/d/^G/d/ A/d/^A/d/ | B/d/=c/d/ B/d/A/d/ | [B,D^G]4 | %373
 g/e'/c'/a/ g/e/c/G/ | F2 d/f/d/f/ | d/e/d/e/ c/e/c/e/ | d/A/d/f/ a/f/a/f/ | %377
{e} (dc/d/){f} (e^d/e/) | (Tf/e/f/g/ a/f/a/f/) |{e} (dc/d/){f} (e^d/e/) | d2 z A | %381
 [Fd][Fd][Ae][Ae] | [df]2 z a | [df][df][Ae][Ae] | [Fd]2 z2 | z4 | z2{E} (DC/D/) | %387
{G} (F^E/F/){B} (A^G/A/) | dAdA | dAdA | d2 D>D |[M:1/4] D2 |] %392
V:6
 z2 | [D,,D,]2 z2 | [D,,D,]2 z2 | z D,C,A,, | D,2 z2 | z D,C,A,, | D,A,,E,A,, | F,D,B,^G, | %8
 A,2 z2 | D,,/F,,/A,,/D,/ F,/D,/A,,/F,,/ | D,,/F,,/A,,/D,/ F,/D,/A,,/F,,/ | %11
 D,,/F,,/A,,/D,/ A,,,/C,,/E,,/A,,/ | D,,/F,,/A,,/D,/ F,/D,/F,/D,/ | %13
 D,,/F,,/A,,/D,/ A,,,/C,,/E,,/A,,/ | D,,/F,,/A,,/D,/ E,,/G,,/C,/E,/ | F,,G,,A,,A,,, | %16
[M:1/4] D,,2 :| z/ F,/D/A,/ |[M:2/4] F,,/D,,/A,,/F,,/ D,/A,,/F,/D,/ | (A,2 F,)!wedge!D, | %20
 (A,,2 F,,)!wedge!D,, | A,/^G,/A,/B,/ C/D/C/B,/ | A,/^G,/A,/B,/ C/B,/C/A,/ | %23
 ^G,/F,/G,/A,/ B,/C/B,/A,/ | ^G,/F,/G,/A,/ B,/A,/B,/G,/ | A,/^G,/A,/B,/ C/D/C/B,/ | %26
 A,/^G,/A,/B,/ C/B,/C/A,/ | ([D,,D,][E,,E,][F,,F,][E,,E,] | [D,,D,][C,,C,][F,,F,][E,,E,]) | %29
 ([D,,D,][E,,E,][F,,F,][E,,E,] | [D,,D,][C,,C,][F,,F,][E,,E,]) | ([^D,,^D,][E,,E,][F,,F,][E,,E,] | %32
 [^D,,^D,][E,,E,][F,,F,][E,,E,]) | ([^D,,^D,][E,,E,][F,,F,][E,,E,] | %34
 [^D,,^D,][E,,E,][F,,F,][D,,D,]) | [E,,E,]2 z2 | z4 |[K:treble]!f! ^g/e/b/g/ e/d/B/d/ | %38
 c/d/^d/e/ =d/c/B/A/ | ^G/E/B/G/ E/D/B,/D/ | C/D/^D/E/ =D/C/B,/A,/ |[K:bass] E,2 E2 | z4 | %43
 A,,2 z2 | A,,2 z2 | ^G,,2 z2 | ^G,,2 z2 | A,,2 z2 | =F,,2 z2 | E,,4- | E,,2 z2 | A,,2 z2 | %52
 _A,,2 z2 | G,,2 z2 | G,,2 z2 | G,,4- | G,,4 | z2 [=C,,=C,]2 | [E,,E,]2 [=C,,=C,]2 | [G,,,G,,]4- | %60
 [G,,,G,,]4 | [=C,,=C,]2 z2 | [=C,,=C,]2 z2 | [B,,,B,,]2 z2 | [A,,,A,,]2 z2 | [E,,E,]2 z2 | %66
 [=C,=C]4 | ([B,,B,]2 [^G,,^G,]2) | ([A,,A,]2 [=F,,=F,]2) | [E,,E,]4 | =C,2 =C2 | B,2 B,,2 | %72
 A,,2 A,2 | ^G,2 ^G,,2 | z2 [E,,E,]2 | [A,,A,]2 [D,,D,]2 | [E,,E,]2 [E,,E,]2 | [A,,,A,,]4 | %78
 [=C,,=C,]4 | [B,,,B,,]4 | [A,,,A,,]4 | [^G,,,^G,,]4 | ^G,2 E,2 | [A,,A,]4 | [=F,,=F,]4 | %85
 [E,,E,]2 !fermata!z2 |!pp! ([A,,,A,,]4 | [D,,D,]2) z [D,,D,] | ([B,,,B,,]4 | [E,,E,]2) z [E,,E,] | %90
 ([C,,C,]4 | [F,,F,]2) ([D,,D,]2 | [A,,A,]2 [F,,F,]2) | [E,,E,]4 | %94
 (A,,,/B,,,/C,,/D,,/ E,,/F,,/^G,,/A,,/ | D,2) z2 | (B,,,/C,,/D,,/E,,/ F,,/^G,,/A,,/B,,/ | E,2) z2 | %98
 (C,,/D,,/E,,/F,,/ ^G,,/A,,/B,,/C,/ | F,2) (D,2 | E,2 E,,2) | A,,2 z2 | z2[K:treble] c^G | A2 z2 | %104
 z2 A^E | F2 z2 | z2 FC | D2 z2 |[K:bass] [^G,,^G,][F,,F,][E,,E,][D,,D,] | [C,,C,] z [D,,D,] z | %110
 [E,,E,] z [E,,E,] z | A,,2[K:treble] c^G | A2 z2 | z2 A^E | F2 z2 | z2 FC | D2 z2 | %117
[K:bass] [D,D][C,C][B,,B,][A,,A,] | [^G,,^G,]2 z [D,D] | [C,C] z [D,D] z | [E,E] z [E,,E,] z | %121
 [A,,A,]2 z2 | z2 [E,,^G,,B,,E,]2 | [A,,C,E,A,]2 z2 | z2 [E,,^G,,B,,E,]2 | [A,,C,E,A,]2 z2 | %126
 z2 [E,,^G,,B,,E,]2 | [A,,C,E,A,]2 z2 | z2 [E,,^G,,B,,E,]2 | [A,,C,E,A,]2 z2 | z4 | %131
 [A,,,C,,E,,A,,]2 z2 | z4 | [A,,,C,,E,,A,,]2 z2 | z4 | [A,,,C,,E,,A,,]2 z2 | z4 | %137
 z2 z3/2 [A,,,C,,E,,A,,]/ | [A,,,C,,E,,A,,]2 z3/2 [A,,C,E,A,]/ | !fermata![A,,C,E,A,]2 z2 | %140
 [D,,D,]2 z2 | [D,,D,]2 z2 | z D,C,A,, | D,2 z2 | z D,C,A,, | D,A,,E,A,, | F,D,B,^G, | A,2 z2 | %148
 D,,/F,,/A,,/D,/ F,/D,/A,,/F,,/ | D,,/F,,/A,,/D,/ F,/D,/A,,/F,,/ | %150
 D,,/F,,/A,,/D,/ A,,,/C,,/E,,/A,,/ | D,,/F,,/A,,/D,/ F,/D,/F,/D,/ | %152
 D,,/F,,/A,,/D,/ A,,,/C,,/E,,/A,,/ | D,,/F,,/A,,/D,/ E,,/G,,/C,/E,/ | F,,G,, A,,A,,, | %155
 D,,2 z/ A,,,/F,,/D,,/ | A,,/F,,/D,/A,,/ F,/D,/A,/F,/ | (=C2 A,)!wedge!F, | (=C,2 A,,)!wedge!F,, | %159
 [D,,D,][=C,,=C,][B,,,B,,][A,,,A,,] | [G,,,G,,]2 z2 | z4 | z4 | z4 | z4 | z4 | z4 | z4 | %168
 G,/D/B,/D/ G,/D/B,/D/ | A,/D/=C/D/ A,/D/C/D/ | G,/D/B,/D/ G,/D/B,/D/ | F,/D/A,/D/ D,/D/F,/D/ | %172
 G,/D/B,/D/ G,/D/B,/D/ | A,/D/=C/D/ A,/D/C/D/ | G,/D/B,/D/ D,/=C/A,/C/ | B,/G/F/E/ D/=C/B,/A,/ | %176
 G,2 z2 | z4 | z4 | z4 | z4 | z4 | z4 | z4 | [G,,G,]2 z2 | [D,,D,]2 z2 | [G,,G,]2 z2 | [D,,D,]4 | %188
 [G,,G,]2 z2 | [D,,D,]2 z2 | [G,,G,]2 [D,,D,]2 | [G,,,G,,]2 z2 | G,/B,/D/G/ B/G/D/B,/ | %193
 F,/A,/D/F/ A/F/D/A,/ | E,/G,/B,/E/ G/E/B,/G,/ | D,/F,/B,/D/ F/D/B,/F,/ | %196
 =C,/E,/G,/=C/ E/C/G,/E,/ | B,,2 z ^G, | A,F,G,C, | ([D,-G,]2 [D,F,]2) | (B,D) x2 | x4 | x4 | x4 | %204
 (B,D) x2 | x4 | x4 | z4 | z4 | z4 |[K:treble] (([B,^DFA]4 | [EG]2)) z2 | z4 | z2 z2 | %214
[K:treble] (([A,CEG]4 | [DF]2)) z2 | ([G,,G,][A,,A,][B,,B,][A,,A,] | %217
 [G,,G,][F,,F,][B,,B,][A,,A,]) | ([G,,G,][A,,A,][B,,B,][A,,A,] | [G,,G,][F,,F,][B,,B,][A,,A,]) | %220
 ([^G,,^G,][A,,A,][B,,B,][A,,A,] | [^G,,^G,][A,,A,][B,,B,][A,,A,]) | %222
 ([^G,,^G,][A,,A,][B,,B,][A,,A,] | [^G,,^G,][A,,A,][B,,B,][G,,G,]) | [A,,A,]2 z2 | z4 | %226
[K:treble] c'/a/e'/c'/ a/g/e/g/ | f/g/^g/a/ =g/f/e/d/ | c/A/e/c/ A/G/E/G/ | F/G/^G/A/ =G/F/E/D/ | %230
[K:bass] A,2 A2 | z4 |[K:bass] D,,2 z2 | D,,2 z2 | C,,2 z2 | C,,2 z2 | D,,2 z2 | _B,,,2 z2 | %238
 A,,,4- | A,,,2 z2 | D,,2 z2 | _D,,2 z2 | =C,,2 z2 | =C,,2 z2 | =C,,4- | C,,4 | z2 =F,,2 | %247
 A,,2 =F,,2 | =C,,4- | C,,4 | z2 [=F,,,=F,,]2 | [A,,,A,,]2 [=F,,,=F,,]2 | [=C,,=C,]4- | [C,,C,]4 | %254
 [=F,,,=F,,]2 z2 | [=F,,=F,]2 z2 | [E,,E,]2 z2 | [D,,D,]2 z2 | [A,,,A,,]2 z2 | [=F,,=F,]4 | %260
 ([E,,E,]2 [C,,C,]2) | ([D,,D,]2 [_B,,,_B,,]2) | [A,,,A,,]4 | =F,2!p! =F2 | E2 E,2 | D,2 D2 | %266
 C2 C,2 | z2 [A,,A,]2 | [D,D]2 [G,,G,]2 | [A,,A,]2 [A,,A,]2 | [D,,D,]4 | [=F,,=F,]4 | [E,,E,]4 | %273
 [D,,D,]4 | [C,,C,]4 | [C,,C,]2 [A,,,A,,]2 | [D,,D,]4 | [_B,,,_B,,]4 | [A,,,A,,]2 !fermata!z2 | %279
 ([D,,D,]4 | [G,,G,]2) z [G,,G,] | ([E,,E,]4 | [A,,A,]2) z [A,,A,] | ([F,,F,]4 | %284
 [B,,B,]2) ([G,,G,]2 | [D,D]2 [B,,B,]2) | [A,,A,]4 | (D,,/E,,/F,,/G,,/ A,,/B,,/C,/D,/ | G,2) z2 | %289
 (E,,/F,,/G,,/A,,/ B,,/C,/D,/E,/ | A,2) z2 | (F,,/G,,/A,,/B,,/ C,/D,/E,/F,/ | B,,2) (G,,2 | %293
 A,,2 A,,,2) | D,,2 z2 | z[K:treble] ^ABA | B z z2 | z FGF | G z z2 | z ^DED | E z z2 | %301
[K:bass] z [D,,D,][C,,C,][B,,,B,,] | [A,,,A,,] z z2 | z [=C,=C][B,,B,][A,,A,] | [G,,G,] z z2 | %305
 z2 [C,,C,]2 | [D,,D,]2 [B,,,B,,]2 | [G,,,G,,]2 [A,,,A,,]2 | D,[K:treble] cdc | d z z2 | z ^ABA | %311
 B z z2 | z FGF | G z z2 |[K:bass] z [A,,A,][G,,G,][F,,F,] | [E,,E,] z z2 | %316
 z [G,,G,][F,,F,][E,,E,] | [D,,D,] z z2 | z [F,,F,][E,,E,][D,,D,] | [C,,C,]2 [C,C]2 | %320
 [D,D]2 [B,,B,]2 | [G,,G,]2 [A,,A,]2 | [D,,D,]2 z A, | [F,D][F,D][A,E][A,E] | [DF]2 z A | %325
 [DF][DF][A,E][A,E] | [F,D]2 z A, | [F,D][F,D][A,E][A,E] | [DF]2 z A | [DF][DF][A,E][A,E] | %330
 [F,D]2 z2 | z4 | [D,,F,,A,,D,]2 z2 | z4 | [D,,F,,A,,D,]2 z2 | z4 | [D,,F,,A,,D,]2 z2 | z4 | %338
 [F,,F,]2 z2 | [G,,G,]2 z2 | [^G,,^G,]2 z2 | z4 | z4 | z4 |!p! [A,,A,]4- | [A,,A,]4 | [D,D]2 z2 | %347
 [D,,D,]2 z2 | [D,,D,]2 z2 | z D,C,A,, | D,2 z2 | z D,C,A,, | D,A,,E,A,, | F,D,B,^G, | A,2 z2 | %355
 D,,/F,,/A,,/D,/ F,/D,/A,,/F,,/ | D,,/F,,/A,,/D,/ F,/D,/A,,/F,,/ | %357
 D,,/F,,/A,,/D,/ A,,,/C,,/E,,/A,,/ | D,,/F,,/A,,/D,/ F,/D,/F,/D,/ | %359
 D,,/F,,/A,,/D,/ A,,,/C,,/E,,/A,,/ | D,,/F,,/A,,/D,/ E,,/G,,/C,/E,/ | F,,G,, A,,A,,, | %362
 D,,([D,D][C,C][=C,=C] | [B,,B,][_B,,_B,][A,,A,][F,,F,] | [G,,G,][F,,F,][G,,G,][=F,,=F,]) | %365
 [E,,E,]4 | [A,,A,]4 | D,DB,,B, | G,,G,A,,A, | D,,([D,D][C,C][=C,=C] | %370
 [B,,B,][_B,,_B,][A,,A,][F,,F,] | [G,,G,][F,,F,][G,,G,][=F,,=F,]) | [E,,E,]4 | [A,,A,]4 | %374
 D,DB,,B, | G,,G,A,,A, | D,2 z2 | z2 [A,,C,E,A,]2 | [D,F,A,D]2 z2 | z2 [A,,,C,,E,,A,,]2 | %380
 [D,,F,,A,,D,]2 z A, | [F,D][F,D][A,E][A,E] | [DF]2 z A | [DF][DF][A,E][A,E] | [F,D]2 z2 | z4 | %386
 z2{E,,} (D,,C,,/D,,/) |{G,,} (F,,^E,,/F,,/){B,,} (A,,^G,,/A,,/) | D,[A,,,A,,][D,,D,][A,,,A,,] | %389
 [D,,D,][A,,,A,,][D,,D,][A,,,A,,] | [D,,D,]2 [D,,D,]2 |[M:1/4] [D,,D,]2 |] %392
V:7
 x2 | x4 | x4 | x4 | x4 | x4 | x4 | x4 | x4 | x4 | x4 | x4 | x4 | x4 | x4 | x4 |[M:1/4] x2 :| %17
 z/ F,,,/D,,/A,,,/ |[M:2/4] x4 | x4 | x4 | A,,,2 z2 | A,,2 z2 | B,,2 z2 | E,,2 z2 | A,,2 z2 | %26
 F,,2 z2 | x4 | x4 | x4 | x4 | x4 | x4 | x4 | x4 | x4 | x4 |[K:treble] x4 | x4 | x4 | x4 | %41
[K:bass] x4 | x4 | x4 | x4 | x4 | x4 | x4 | x4 | x4 | x4 | x4 | x4 | x4 | x4 | x4 | x4 | x4 | x4 | %59
 x4 | x4 | x4 | x4 | x4 | x4 | x4 | x4 | x4 | x4 | x4 | x4 | x4 | x4 | x4 | x4 | x4 | x4 | x4 | %78
 x4 | x4 | x4 | x4 | x4 | x4 | x4 | x4 | x4 | x4 | x4 | x4 | x4 | x4 | x4 | x4 | x4 | x4 | x4 | %97
 x4 | x4 | x4 | x4 | x4 | x2[K:treble] x2 | x4 | x4 | x4 | x4 | x4 |[K:bass] x4 | x4 | x4 | %111
 x2[K:treble] x2 | x4 | x4 | x4 | x4 | x4 |[K:bass] x4 | x4 | x4 | x4 | x4 | x4 | x4 | x4 | x4 | %126
 x4 | x4 | x4 | x4 | x4 | x4 | x4 | x4 | x4 | x4 | x4 | x4 | x4 | x4 | x4 | x4 | x4 | x4 | x4 | %145
 x4 | x4 | x4 | x4 | x4 | x4 | x4 | x4 | x4 | x4 | x4 | x4 | x4 | x4 | x4 | x4 | x4 | x4 | x4 | %164
 x4 | x4 | x4 | x4 | x4 | x4 | x4 | x4 | x4 | x4 | x4 | x4 | x4 | x4 | x4 | x4 | x4 | x4 | x4 | %183
 x4 | x4 | x4 | x4 | x4 | x4 | x4 | x4 | x4 | x4 | x4 | x4 | x4 | x4 | x4 | x4 | x4 | x4 | x4 | %202
 x4 | x4 | x4 | x4 | x4 | x4 | x4 | x4 |[K:treble] x4 | x4 | x4 | x4 |[K:treble] x4 | x4 | x4 | %217
 x4 | x4 | x4 | x4 | x4 | x4 | x4 | x4 | x4 |[K:treble] x4 | x4 | x4 | x4 |[K:bass] x4 | x4 | %232
[K:bass] x4 | x4 | x4 | x4 | x4 | x4 | x4 | x4 | x4 | x4 | x4 | x4 | x4 | x4 | x4 | x4 | x4 | x4 | %250
 x4 | x4 | x4 | x4 | x4 | x4 | x4 | x4 | x4 | x4 | x4 | x4 | x4 | x4 | x4 | x4 | x4 | x4 | x4 | %269
 x4 | x4 | x4 | x4 | x4 | x4 | x4 | x4 | x4 | x4 | x4 | x4 | x4 | x4 | x4 | x4 | x4 | x4 | x4 | %288
 x4 | x4 | x4 | x4 | x4 | x4 | x4 | x[K:treble] x3 | x4 | x4 | x4 | x4 | x4 |[K:bass] x4 | x4 | %303
 x4 | x4 | x4 | x4 | x4 | x[K:treble] x3 | x4 | x4 | x4 | x4 | x4 |[K:bass] x4 | x4 | x4 | x4 | %318
 x4 | x4 | x4 | x4 | x4 | x4 | x4 | x4 | x4 | x4 | x4 | x4 | x4 | x4 | x4 | x4 | x4 | x4 | x4 | %337
 x4 | x4 | x4 | x4 | x4 | x4 | x4 | x4 | x4 | x4 | x4 | x4 | x4 | x4 | x4 | x4 | x4 | x4 | x4 | %356
 x4 | x4 | x4 | x4 | x4 | x4 | x4 | x4 | x4 | x4 | x4 | x4 | x4 | x4 | x4 | x4 | x4 | x4 | x4 | %375
 x4 | x4 | x4 | x4 | x4 | x4 | x4 | x4 | x4 | x4 | x4 | x4 | x4 | x4 | x4 | x4 |[M:1/4] x2 |] %392
V:8
 x2 |[K:bass] x4 | x4 | x4 | x4 | x4 |[K:treble] x4 | x4 | x4 | x4 | x4 | x4 | x4 | x4 | x4 | x4 | %16
[M:1/4] x2 :| x2 |[M:2/4] x4 | x4 | x4 | x4 | x4 | x4 | x4 | x4 | x4 | x4 | x4 | x4 | x4 | x4 | %32
 x4 | x4 | x4 | x4 | x4 | x4 | x4 | x4 | x4 | x4 | x4 | x4 | x4 | x4 | x4 | x4 | x4 | x4 | x4 | %51
 x4 | x4 | x4 | x4 | x4 | x4 | x4 | x4 | x4 | x4 | x4 | x4 | x4 | x4 | x4 | x4 | x4 | x4 | x4 | %70
 x4 | x4 | x4 | x4 | x4 | x4 | x4 | x4 | x4 | x4 | x4 | x4 | x4 | x4 | x4 | x4 | x4 | x4 | x4 | %89
 x4 | x4 | x4 | x4 | E4 | x4 | x4 | x4 | x4 | x4 | x4 | E4 | x4 | x4 | x4 | x4 | x4 | x4 | x4 | %108
 x4 | x4 | x4 | x4 | x4 | x4 | x4 | x4 | x4 | x4 | x4 | x4 | x4 | x4 | x4 | x4 | x4 | x4 | x4 | %127
 x4 | x4 | x4 | x4 | x4 | x4 | x4 | x4 | x4 | x4 | x4 | x4 | x4 |[K:bass] x4 | x4 | x4 | x4 | x4 | %145
[K:treble] x4 | x4 | x4 | x4 | x4 | x4 | x4 | x4 | x4 | x4 | x4 | x4 | x4 | x4 | x4 | x4 | x4 | %162
 x4 | x4 | x4 | x4 | x4 | x4 | x4 | x4 | x4 | x4 | x4 | x4 | x4 | x4 | x4 | x4 | x4 | x4 | x4 | %181
 x4 | x4 | x4 | x4 | x4 | x4 | x4 | x4 | x4 | x4 | x4 | x4 | x4 | x4 | x4 | x4 | x4 | x4 | x4 | %200
 x2 x (G | FA) x D | GB x (d | c d2 =c/A/) | x2 x (G | FA) x D | %206
!8va(! !wedge!d(d/B/) !wedge!=c(c/A/) | G2!8va)! x2 | x4 | x4 | x4 | x4 | x4 | x4 | x4 | x4 | x4 | %217
 x4 | x4 | x4 | x4 | x4 | x4 | x4 | x4 | x4 | x4 | x4 | x4 | x4 | x4 | x4 | x4 | x4 | x4 | x4 | %236
 x4 | x4 | x4 | x4 | x4 | x4 | x4 | x4 | x4 | x4 | x4 | x4 | x4 | x4 | x4 | x4 | x4 | x4 | x4 | %255
 x4 | x4 | x4 | x4 | x4 | x4 | x4 | x4 | x4 | x4 | x4 | x4 | x4 | x4 | x4 | x4 | x4 | x4 | x4 | %274
 x4 | x4 | x4 | x4 | x4 | x4 | x4 | x4 | x4 | x4 | x4 | x4 | A4 | x4 | x4 | x4 | x4 | x4 | x4 | %293
 A,4 | x4 | x4 | x4 | x4 | x4 | x4 | x4 | x4 | x4 | x4 | x4 | x4 | x4 | x4 | x4 | x4 | x4 | x4 | %312
 x4 | x4 | x4 | x4 | x4 | x4 | x/!8va(! x7/2 | x4 | x4 | x4 | x2!8va)! x2 | x4 | x4 | x4 | x4 | %327
 x4 | x4 | x4 | x4 | x4 | x4 | x4 | x4 | x4 | x4 | x4 | x4 | x4 | x4 | x4 | x4 | x4 | x4 | x4 | %346
 x4 |[K:bass] x4 | x4 | x4 | x4 | x4 |[K:treble] x4 | x4 | x4 | x4 | x4 | x4 | x4 | x4 | x4 | x4 | %362
 x4 | x4 | x4 | x4 | x4 | x4 | x4 | x4 | x4 | x4 | x4 | x4 | x4 | x4 | x4 | x4 | x4 | x4 | x4 | %381
 x4 | x4 | x4 | x4 | x4 | x4 | x4 | x4 | x4 | x4 |[M:1/4] x2 |] %392

